!!!COM:      Bach, Johann Sebastian
!!!CDT:      1685/03/31/-1750/07/28/
!!!OPR@@GER: Das wohltemperirte Clavier
!!!OVM@@GER: Band I
!!!OPR@ENG:  Well-Tempered Clavier
!!!OVM@ENG:  Book I
!!!OTL:      Prelude
!!!OKY:      A major
!!!ONM:      no. 19
!!!SCT:      BWV 864
!!!OMV:      1
**kern	**kern	**kern
*clefF4	*clefF4	*clefG2
*k[f#c#g#]	*k[f#c#g#]	*k[f#c#g#]
*A:	*A:	*A:
*M4/4	*M4/4	*M4/4
*met(c)	*met(c)	*met(c)
*MM66	*MM66	*MM66
=1-	=1-	=1-
4AA	2r	16a
.	.	16b
.	.	16cc#
.	.	16a
4A	.	8ff#
.	.	8ff#
4G#	4r	16ff#
.	.	16dd#
.	.	8ee
4Gn	8r	16r
.	.	16ee
.	[8e	16ff#
.	.	16ggn
=2	=2	=2
4F#	8e]	16aa
.	.	16ggn
.	8A	16ff#
.	.	16aa
4B	8r	16dd
.	.	16cc#
.	[8d	16b
.	.	16aa
4E	8d]	16gg#
.	.	16ff#
.	8G#	16ee
.	.	16gg#
4A	8r	16cc#
.	.	16b
.	[8c#	16a
.	.	16ggn
=3	=3	=3
4D	8c#]	16ff#
.	.	16ee
.	16B	16dd
.	16A	16ff#
4E	8.G#w	16b
.	.	16ff#
.	.	16ee
.	16G#	16dd
8AA	8A	16cc#
.	.	16b
8A	8r	16a
.	.	16b
8G#	4r	16cc#
.	.	16dd#
8F#	.	16ee
.	.	16ff#
=4	=4	=4
*	*clefG2	*
16E	4r	16gg#
16F#	.	16aa
16G#	.	16bb
16E	.	16gg#
8c#	4ee	16ee
.	.	16ff#
8c#	.	16gg#
.	.	16ee
16c#	4dd#	16ff#
16A#	.	16gg#
8B	.	16aa
.	.	16ff#
16r	4ddn	8b
16B	.	.
16c#	.	[8bb
16dn	.	.
=5	=5	=5
16e	4cc#	8bb]
16d	.	.
16c#	.	8ee
16e	.	.
16A	4ff#	8r
16G#	.	.
16F#	.	[8aa
16e	.	.
16d#	4b	8aa]
16c#	.	.
16B	.	8dd#
16d#	.	.
16G#	[4ee	8r
16F#	.	.
16E	.	8gg#
16dn	.	.
=6	=6	=6
16c#	4ee]	16aa
16B	.	16gg#
16A	.	16ff#
16c#	.	16aa
16F#	4dd#	16dd#X
16c#	.	16aa
16B	.	16gg#
16A	.	16ff#
16G#	8ee	4ee
16F#	.	.
16E	8b	.
16F#	.	.
16G#	8ee	8r
16A	.	.
16B	8ee	8ggn
16c#	.	.
=7	=7	=7
16d	8ee	8ggn
16e	.	.
16f#	8dd	8ff#
16d	.	.
16B	8r	8r
16c#	.	.
16d	8dd	8ff#
16B	.	.
16c#	8dd	8ff#
16d	.	.
16e	8cc#	8ee
16c#	.	.
16A	8r	8r
16B	.	.
16c#	8cc#	8ee
16A	.	.
=8	=8	=8
16B	8cc#	8ee
16c#	.	.
16d	8b	8dd
16B	.	.
16G#	4r	8r
16A	.	.
16B	.	8dd
16G#	.	.
[4A	16A	8dd
.	16B	.
.	16c#	8cc#
.	16A	.
16A]	8f#	4aa
16c#	.	.
16A	8f#	.
16F#	.	.
=9	=9	=9
4c#	16f#	4gg#
.	16d#	.
.	8e	.
16r	16r	4ggn
[8.e	16e	.
.	16f#	.
.	16gn	.
8e]	16a	4ff#
.	16g	.
8A	16f#	.
.	16a	.
8r	16dn	4bb
.	16c#	.
[8d	16B	.
.	16a	.
=10	=10	=10
8d]	16g#X	4ee
.	16f#	.
8G#	16e	.
.	16g#	.
8r	16c#	2aa
.	16B	.
8c#	16A	.
.	16gn	.
8d	16f#	.
.	16e	.
8B	16d	.
.	16f#	.
8r	16B	[4gg#
.	16f#	.
8E	16e	.
.	16d	.
=11	=11	=11
8A	4c#	16gg#]
.	.	16ff#
8G#	.	16ee#
.	.	16gg#
8A	16r	2ff#
.	16een	.
8F#	16dd	.
.	16cc#	.
8G#	16b	.
.	16a	.
8B	16g#	.
.	16b	.
8c#	16c#	4ee#
.	16dd	.
8C#	16cc#	.
.	16b	.
=12	=12	=12
8F#	4a	16ff#
.	.	16gg#
8FF#	.	16aa
.	.	16ff#
4F#	16r	8dd
.	16cc#	.
.	16b	8dd
.	16a	.
4E#	8.g#	16dd
.	.	16b#
.	.	8cc#
.	16G#	.
4En	[4c#	16r
.	.	16cc#
.	.	16dd
.	.	16ee
=13	=13	=13
4D#	8c#]	16ff#
.	.	16ee
.	8F#	16dd#
.	.	16ff#
4G#	8r	16b
.	.	16a
.	[8B	16g#
.	.	16ff#
4C#	8B]	16ee#
.	.	16dd#X
.	8E#X	16cc#
.	.	16bb
4F#	8r	16aa
.	.	16gg#
.	[8A	16ff#
.	.	16ee#X
=14	=14	=14
8D	8A]	16ff#
.	.	16ee#
8BB	16G#	16ff#
.	16F#	16gg#
4C#	8E#X	8.gg#
.	8B	.
.	.	16ff#
4F#	16A	4ff#
.	16dd	.
.	16cc#	.
.	16b	.
4r	16a	8r
.	16g#	.
.	16f#	8aa
.	16en	.
=15	=15	=15
16r	4d#	8aa
16c#	.	.
16B	.	8gg#
16A	.	.
16G#	8r	8r
16F#	.	.
16E	[8ee	8gg#
16A#	.	.
4BB	16ee]	8gg#
.	16ee	.
.	16dd#X	8ff#
.	16cc#	.
4r	16b	8r
.	16a	.
.	16g#	8bb
.	16f#	.
=16	=16	=16
16r	4e	8bb
16d#	.	.
16c#	.	8aa
16B	.	.
16A	8r	8r
16G#	.	.
16F#	[8ff#	8aa
16d#X	.	.
4E	16ff#]	8aa
.	16ff#	.
.	16ee	8gg#
.	16ddn	.
4r	16cc#	8r
.	16b	.
.	16a	8ee
.	16g#	.
=17	=17	=17
16r	4f#	8ee
16e	.	.
16dn	.	8a
16c#	.	.
16B	8r	8dd
16A	.	.
16G#	8b	8dd
16B	.	.
16AA	8b	8dd
16BB	.	.
16C#	8e	8cc#
16AA	.	.
8F#	4a	16r
.	.	16ee
8F#	.	16dd
.	.	16cc#
=18	=18	=18
16F#	4g#	16b
16D#	.	16cc#
8E	.	16dd
.	.	16b
16r	4gn	8e
16E	.	.
16F#	.	[8ee
16Gn	.	.
16A	4f#	8ee]
16G	.	.
16F#	.	8a
16A	.	.
16Dn	4b	8r
16C#	.	.
16BB	.	[8dd
16A	.	.
=19	=19	=19
16G#X	4e	8dd]
16F#	.	.
16E	.	8g#
16G#	.	.
16C#	2a	8r
16BB	.	.
16AA	.	8cc#
16Gn	.	.
16F#	.	16dd
16E	.	16cc#
16D	.	16b
16F#	.	16cc#
16BB	4g#X	16dd
16F#	.	16cc#
16E	.	16dd
16D	.	16ee
=20	=20	=20
*	*staff:3	*
*	*clefF4	*
16C#	4a	16a
16BB	.	16b
16AA	.	16cc#
16C#	.	16a
16D	4A	8ff#
16E	.	.
16D	.	8ff#
16C#	.	.
16BB	4G#	16ff#
16AA	.	16dd#
16GG#	.	8ee
16BB	.	.
8C#	4Gn	16r
.	.	16ee
[8E	.	16ff#
.	.	16ggn
=21	=21	=21
8E]	4F#	16aa
.	.	16ggn
8AA	.	16ff#
.	.	16aa
8r	4B	16dd
.	.	16cc#
[8D	.	16b
.	.	16aa
8D]	4E	16gg#
.	.	16ff#
8GG#	.	16ee
.	.	16gg#
8r	4A	16cc#
.	.	16b
[8C#	.	16a
.	.	16ggn
=22	=22	=22
8C#]	[4D	16ff#
.	.	16ee
16BB	.	16dd
16AA	.	16ff#
4GG#	16D]	16b
.	16D	16ff#
.	16C#	16ee
.	16BB	16dd
8AA	16AA	16cc#
.	16BB	16b
8r	16C#	16a
.	16AA	16cc#
4r	16D	16f#
.	16E	16e
.	16F#	16d
.	16D	16f#
=23	=23	=23
2r	16G#	16B
.	16A	16c#
.	16G#	16d
.	16F#	16e
.	16E	16f#
.	16d	16g#
.	16c#	16a
.	16B	16b
16r	16A	16cc#
16F#	16r	16dd
16E	8r	16ee
16D	.	16ff#
16C#	4r	16gg#
16BB	.	16aa
16AA	.	16bb
16GG#	.	16gg#
=24	=24	=24
*MM62	*MM62	*MM62
*	*staff:2	*
*	*clefG2	*
16FF#	16r	[4aa
16EE	16gg#	.
8DD	16ff#	.
.	16ee	.
*MM54	*MM54	*MM54
8EE	16dd	8.aa]
.	16cc#	.
8E	8b	.
*MM40	*MM40	*MM40
.	.	16gg#
2AA	2cc#;y	2aa;
==	==	==
*-	*-	*-
!!!AFR:  prelude
!!!EFL:  37/96
!!!END:  1994/01/18/
!!!VID:  2867120518 Bach, BWV 864-01
!!!AST:  Baroque
!!!OCY:  Deutschland
!!!ODT:  1722///
!!!PDT:  1801///
!!!EED:  Walter Hewlett
!!!ENC:  Walter Hewlett
!!!YOR:  Bach Gesellschaft Edition xiv
!!!AFT:  enhanced SCORE
!!!RDT:  2011/10/07/ by Andreas Kornstaedt using massScr2hmd
!!!SCA1: Thematisch-systematisches Verzeichnis der musikalischen Werke 
!!!SCA2: Johann Sebastian Bach: Bach-Werke-Verzeichnis (Schmieder)
!!!YEC1: Copyright 1994, 2000 Center for Computer Assisted Research 
!!!YEC2: in the Humanities
!!!YEM1: Rights to all derivative editions reserved.
!!!YEM2: Refer to licensing agreement for further details.
!!!YEN:  United States of America
!!!ref:  @{OTL}, @{SCT}
!!muse2ps: T^@{OTL} @{ONM} in @{OKY}^C^J.S. Bach\n@{SCT}-@{OMV}^
!!muse2ps: u^@{OPR@ENG}, @{OVM@ENG}^j
